build/assets/fonts/f7fcc525735b4166573bc49f7c418161.svg

<svg width="100" height="60" viewBox="0 0 100 60" version="1.1" xmlns="http://www.w3.org/2000/svg" xmlns:xlink="http://www.w3.org/1999/xlink"><title>Solo-light</title><desc>Created with Sketch.</desc><g id="Light-Payment-badges" stroke="none" stroke-width="1" fill="none" fill-rule="evenodd" transform="translate(-770.000000, -689.000000)"><g id="Solo-light" transform="translate(770.000000, 689.000000)"><rect id="Rectangle-35" fill="#FFF" x="0" y="0" width="100" height="60" rx="4"/><path d="M34.4759581,26.3856465 C34.4759581,17.5919038 41.7366684,10.4618663 50.6945218,10.4618663 C59.6514638,10.4618663 66.9130855,17.5919038 66.9130855,26.3856465 C66.9130855,35.1811791 59.6514638,42.3094267 50.6945218,42.3094267 C41.7366684,42.3094267 34.4759581,35.1811791 34.4759581,26.3856465 L34.4759581,26.3856465 Z M50.6945218,41.1961134 C59.0243776,41.1961134 65.7764918,34.5645611 65.7764918,26.3856465 C65.7764918,18.2067319 59.0243776,11.5769694 50.6945218,11.5769694 C42.3637546,11.5769694 35.6116404,18.2067319 35.6116404,26.3856465 C35.6116404,34.5645611 42.3637546,41.1961134 50.6945218,41.1961134 L50.6945218,41.1961134 Z" id="Fill-3" fill="#992685"/><path d="M55.1661568,23.6512367 C57.7419498,27.4819741 56.6235854,32.610533 52.671484,35.1036928 C48.7193826,37.5986197 43.4292542,36.5172491 40.8552841,32.6865116 L43.3080297,31.0883096 C44.9805634,33.5752851 48.4158656,34.2794128 50.982544,32.659124 C53.5483109,31.0388351 54.2747465,27.7081432 52.6031243,25.2220511 L55.1661568,23.6512367" id="Fill-1" fill="#992685"/><path d="M60.8782923,20.1367824 C58.2988534,16.3078119 53.0059907,15.2326256 49.0584466,17.7310863 C45.1090796,20.231314 43.9989183,25.3616397 46.5783572,29.1888433 L49.0748529,27.6551348 C47.4014078,25.1699262 48.1223746,21.8401177 50.6863186,20.2162949 C53.2502627,18.5924722 56.6855648,19.293066 58.3626558,21.7773911 L60.8782923,20.1367824" id="Fill-2" fill="#000"/><path d="M56.1423332,48.021502 C56.3437664,46.647702 57.6580953,45.531876 59.0772424,45.531876 C60.497301,45.531876 61.4825919,46.647702 61.2811587,48.021502 C61.0779026,49.3988359 59.7644851,50.5146618 58.345338,50.5146618 C56.9261909,50.5146618 55.939077,49.3988359 56.1423332,48.021502 L56.1423332,48.021502 Z M58.4738542,49.6417908 C59.3962543,49.6417908 60.2493832,48.9173433 60.3815452,48.021502 C60.5137073,47.1291946 59.8720377,46.4029801 58.9505491,46.4029801 C58.0263261,46.4029801 57.1731972,47.1291946 57.0410352,48.021502 C56.9097846,48.9173433 57.5505427,49.6417908 58.4738542,49.6417908 L58.4738542,49.6417908 Z" id="o" fill="#992685"/><polyline id="l" fill="#992685" points="52.5584626 45.6967986 53.5957069 45.6967986 52.7398437 49.4689974 55.5307418 49.4689974 55.3356888 50.3183014 51.5075464 50.3183014 52.5584626 45.6967986"/><path d="M45.902052,47.9851763 C46.1034852,46.5935348 47.4178141,45.4632176 48.8360498,45.4632176 C50.2561083,45.4632176 51.2423108,46.5935348 51.0399661,47.9851763 C50.8385329,49.3803977 49.5232925,50.5107149 48.1032339,50.5107149 C46.6849983,50.5107149 45.6987958,49.3803977 45.902052,47.9851763 L45.902052,47.9851763 Z M48.2326616,49.6265079 C49.1559731,49.6265079 50.009102,48.8926519 50.1412641,47.9851763 C50.2725147,47.0812805 49.6317565,46.3456346 48.708445,46.3456346 C47.7869564,46.3456346 46.9329161,47.0812805 46.7998425,47.9851763 C46.6695034,48.8926519 47.3102615,49.6265079 48.2326616,49.6265079 L48.2326616,49.6265079 Z" id="o" fill="#992685"/><path d="M40.8716905,48.9341292 C41.077681,49.3210903 41.928987,49.7955151 42.7647981,49.7690109 C43.6470938,49.7433902 43.9633713,49.4986683 44.0244392,49.0896204 C44.0463143,48.9270615 44.114674,48.5568864 43.3809467,48.472073 L42.1905767,48.3439695 C40.9254667,48.182294 40.7212991,47.6848989 40.7504659,47.0744193 C40.7896588,46.2351202 41.8724763,45.5866513 43.034591,45.5725157 C44.0590748,45.5592637 44.92861,45.7783649 45.3332994,46.3128658 L44.6141555,46.7342823 C44.0189705,46.2766435 43.4830305,46.242188 42.8450068,46.2801774 C42.4011245,46.307565 41.8013822,46.4807256 41.7093245,46.8977247 C41.6446107,47.1928046 41.6601055,47.3783339 42.2972178,47.4498952 L43.8047768,47.6416087 C44.4993112,47.7193543 45.0790013,48.3528042 45.0252251,48.894373 C44.9431934,49.685081 44.2313412,50.6197951 42.5259949,50.5393991 C41.2216921,50.4784395 40.456975,49.9854617 40.1069734,49.3670308 L40.8716905,48.9341292" id="s" fill="#992685"/></g></g></svg>

<svg width="100" height="60" xmlns="http://www.w3.org/2000/svg"><g fill="none" fill-rule="evenodd"><rect fill="#FFF" width="100" height="60" rx="4"/><path d="M34.476 26.386c0-8.794 7.26-15.924 16.219-15.924 8.956 0 16.218 7.13 16.218 15.924 0 8.795-7.262 15.923-16.218 15.923-8.958 0-16.219-7.128-16.219-15.923zm16.219 14.81c8.33 0 15.081-6.631 15.081-14.81 0-8.18-6.752-14.809-15.081-14.809-8.331 0-15.083 6.63-15.083 14.809 0 8.179 6.752 14.81 15.083 14.81z" fill="#992685"/><path d="M55.166 23.651c2.576 3.831 1.458 8.96-2.495 11.453-3.952 2.495-9.242 1.413-11.816-2.417l2.453-1.599c1.673 2.487 5.108 3.191 7.675 1.571 2.565-1.62 3.292-4.95 1.62-7.437l2.563-1.57" fill="#992685"/><path d="M60.878 20.137c-2.58-3.83-7.872-4.904-11.82-2.406-3.949 2.5-5.06 7.63-2.48 11.458l2.497-1.534c-1.674-2.485-.953-5.815 1.611-7.439 2.564-1.624 6-.923 7.677 1.561l2.515-1.64" fill="#000"/><path d="M56.142 48.022c.202-1.374 1.516-2.49 2.935-2.49 1.42 0 2.406 1.116 2.204 2.49-.203 1.377-1.517 2.493-2.936 2.493s-2.406-1.116-2.203-2.493zm2.332 1.62c.922 0 1.775-.725 1.908-1.62.132-.893-.51-1.619-1.431-1.619-.925 0-1.778.726-1.91 1.619-.131.895.51 1.62 1.433 1.62zm-5.916-3.945h1.038l-.856 3.772h2.79l-.194.85h-3.828l1.05-4.622m-6.656 2.288c.201-1.391 1.516-2.522 2.934-2.522 1.42 0 2.406 1.13 2.204 2.522-.201 1.395-1.517 2.526-2.937 2.526-1.418 0-2.404-1.13-2.2-2.526zm2.33 1.642c.924 0 1.777-.734 1.91-1.642.13-.904-.51-1.64-1.434-1.64-.921 0-1.775.736-1.908 1.64-.13.908.51 1.642 1.433 1.642zm-7.36-.693c.206.387 1.057.862 1.893.835.882-.026 1.198-.27 1.26-.68.021-.162.09-.532-.644-.617l-1.19-.128c-1.266-.162-1.47-.66-1.44-1.27.039-.839 1.121-1.487 2.284-1.501 1.024-.014 1.894.205 2.298.74l-.719.421c-.595-.457-1.131-.492-1.769-.454-.444.028-1.044.2-1.136.618-.064.295-.049.48.588.552l1.508.192c.694.077 1.274.71 1.22 1.252-.082.791-.794 1.726-2.499 1.645-1.304-.06-2.069-.554-2.419-1.172l.765-.433" fill="#992685"/></g></svg>
